assets/Dollar banknote/Flat/dollar_banknote_flat.svg

<svg width="32" height="32" viewBox="0 0 32 32" fill="none" xmlns="http://www.w3.org/2000/svg">
<path d="M2 10C2 8.89543 2.89543 8 4 8H15L17 9L19 8H28C29.1046 8 30 8.89543 30 10V24C30 25.1046 29.1046 26 28 26H4C2.89543 26 2 25.1046 2 24V10Z" fill="#00F397"/>
<path d="M3 11C3 9.89543 3.89543 9 5 9H27C28.1046 9 29 9.89543 29 11V23C29 24.1046 28.1046 25 27 25H5C3.89543 25 3 24.1046 3 23V11ZM5 10C4.44772 10 4 10.4477 4 11V23C4 23.5523 4.44772 24 5 24H27C27.5523 24 28 23.5523 28 23V11C28 10.4477 27.5523 10 27 10H5ZM2 28C2 29.1046 2.89543 30 4 30H15L17 29L19 30H28C29.1046 30 30 29.1046 30 28V24C30 25.1046 29.1046 26 28 26H4C2.89543 26 2 25.1046 2 24V28ZM26 17C26 19.4853 23.9853 21.5 21.5 21.5C19.0147 21.5 17 19.4853 17 17C17 14.5147 19.0147 12.5 21.5 12.5C23.9853 12.5 26 14.5147 26 17Z" fill="#008463"/>
<path d="M19 8H15V27H19V8Z" fill="#FFF478"/>
<path d="M19 26H15V30H19V26Z" fill="#F3AD61"/>
<path d="M9.5 12C9.77614 12 10 12.2239 10 12.5V13.045C10.8338 13.1973 11.5169 13.7231 11.8244 14.42C11.9539 14.7136 11.7017 15 11.3808 15C11.1374 15 10.9326 14.8271 10.7943 14.6267C10.5505 14.2733 10.1003 14 9.5 14C8.56986 14 8 14.6561 8 15.25C8 15.8439 8.56986 16.5 9.5 16.5C10.8807 16.5 12 17.5074 12 18.75C12 19.8385 11.1411 20.7465 10 20.955V21.5C10 21.7761 9.77614 22 9.5 22C9.22386 22 9 21.7761 9 21.5V20.955C8.1662 20.8027 7.48309 20.2769 7.17562 19.58C7.04607 19.2864 7.29827 19 7.61918 19C7.86263 19 8.06741 19.1729 8.20565 19.3733C8.44948 19.7267 8.89971 20 9.5 20C10.4301 20 11 19.3439 11 18.75C11 18.1561 10.4301 17.5 9.5 17.5C8.11929 17.5 7 16.4926 7 15.25C7 14.1615 7.85888 13.2535 9 13.045V12.5C9 12.2239 9.22386 12 9.5 12Z" fill="white"/>
</svg>

<svg xmlns="http://www.w3.org/2000/svg" width="32" height="32" fill="none"><path fill="#00F397" d="M2 10a2 2 0 0 1 2-2h11l2 1 2-1h9a2 2 0 0 1 2 2v14a2 2 0 0 1-2 2H4a2 2 0 0 1-2-2V10Z"/><path fill="#008463" d="M3 11a2 2 0 0 1 2-2h22a2 2 0 0 1 2 2v12a2 2 0 0 1-2 2H5a2 2 0 0 1-2-2V11Zm2-1a1 1 0 0 0-1 1v12a1 1 0 0 0 1 1h22a1 1 0 0 0 1-1V11a1 1 0 0 0-1-1H5ZM2 28a2 2 0 0 0 2 2h11l2-1 2 1h9a2 2 0 0 0 2-2v-4a2 2 0 0 1-2 2H4a2 2 0 0 1-2-2v4Zm24-11a4.5 4.5 0 1 1-9 0 4.5 4.5 0 0 1 9 0Z"/><path fill="#FFF478" d="M19 8h-4v19h4V8Z"/><path fill="#F3AD61" d="M19 26h-4v4h4v-4Z"/><path fill="#fff" d="M9.5 12a.5.5 0 0 1 .5.5v.545c.834.152 1.517.678 1.824 1.375.13.294-.122.58-.443.58-.244 0-.448-.173-.587-.373C10.55 14.273 10.1 14 9.5 14c-.93 0-1.5.656-1.5 1.25s.57 1.25 1.5 1.25c1.38 0 2.5 1.007 2.5 2.25 0 1.088-.859 1.997-2 2.205v.545a.5.5 0 0 1-1 0v-.545c-.834-.152-1.517-.678-1.824-1.375-.13-.294.122-.58.443-.58.244 0 .448.173.587.373.243.354.694.627 1.294.627.93 0 1.5-.656 1.5-1.25s-.57-1.25-1.5-1.25c-1.38 0-2.5-1.007-2.5-2.25 0-1.088.859-1.996 2-2.205V12.5a.5.5 0 0 1 .5-.5Z"/></svg>
